layouts/icon-pack/spell_werewolf.svg

<?xml version="1.0" encoding="UTF-8"?>
<svg width="1200pt" height="1200pt" version="1.1" viewBox="0 0 1200 1200" xmlns="http://www.w3.org/2000/svg">
 <path d="m1026.4 567.7-34.875 13.031c-8.0391-17.039-21.656-41.906-39.656-59.789-3.1875-3.0742-7.9922-3.7461-11.898-1.6641-3.9102 2.082-6.0312 6.4453-5.2578 10.805 4.3203 23.172 5.7383 46.789 4.2188 70.312l-60.188 22.477c-5.6836 2.1211-11.969 1.9336-17.52-0.51953-5.5469-2.4531-9.9141-6.9805-12.168-12.609-2.2539-5.6328-2.2148-11.926 0.10937-17.527 30.469-73.641 76.359-157.24 116.32-224.84 12.215 10.84 22.047 24.098 28.875 38.93 1.9453 4.0703 6.25 6.4648 10.734 5.9766 4.4844-0.49219 8.168-3.7617 9.1875-8.1562 5.3906-22.805 8.2734-59.109-4.4766-109.55 6.8672-10.969 13.031-20.695 18.281-28.852 12.039-18.766 17.125-41.156 14.367-63.281l-12.258-99.328c-1.1289-9.4922-7-17.762-15.59-21.957-8.5898-4.1914-18.723-3.7344-26.902 1.2148l-312.56 187.15c-17.652 10.586-37.848 16.172-58.43 16.172h-140.11c-16.309 0-32.25 4.8281-45.82 13.875l-119.95 80.109c-20.508 13.672-44.039 22.141-68.555 24.68l-58.008 6c-10 1.043-19.262 5.7539-25.992 13.227-6.7305 7.4727-10.457 17.172-10.453 27.227v670.88h603.89c12.062-0.015624 23.75-4.1914 33.09-11.828 9.3359-7.6367 15.754-18.258 18.168-30.078 4.6641-21.703 7.7031-43.727 9.0938-65.883 0.23438-4.4102 3.0352-8.2695 7.1562-9.8594 4.1172-1.5898 8.7891-0.60938 11.922 2.5l18.75 18.75c3.1953 3.2031 8.0039 4.1602 12.18 2.4219 4.1797-1.7344 6.8906-5.8203 6.875-10.344 0-19.008 0.58594-37.078 1.4297-53.906 4.2188-83.074 37.043-162.13 92.906-223.76 20.18-22.266 39-40.898 52.758-53.906 14.664-13.945 24.461-32.234 27.938-52.172l7.8281-44.672c0.78516-4.4297-0.019532-8.9961-2.2734-12.895-2.2539-3.8945-5.8086-6.8711-10.039-8.4023-4.2344-1.5273-8.8711-1.5156-13.094 0.039063zm-446.6-96.609c-11.203 20.25-33.258 55.734-64.477 86.109-9.25 8.9766-21.254 14.582-34.078 15.914-19.148 2.0156-49.359 4.1016-75 1.0312-3.9922-0.55078-7.4219-3.1172-9.0781-6.793s-1.3086-7.9414 0.92188-11.301l38.344-55.688c6.1641-8.9531 15.422-15.316 25.992-17.859 21.68-5.2031 62.414-14.766 107.81-24.164 3.3594-0.76953 6.8594 0.50781 8.9258 3.2656 2.0703 2.7578 2.3164 6.4766 0.63672 9.4844z" fill="#fff"/>
</svg>

<?xml version="1.0" encoding="UTF-8" standalone="no"?>
<!DOCTYPE svg PUBLIC "-//W3C//DTD SVG 1.1//EN" "http://www.w3.org/Graphics/SVG/1.1/DTD/svg11.dtd">
<svg width="100%" height="100%" viewBox="0 0 444 512" version="1.1" xmlns="http://www.w3.org/2000/svg" xmlns:xlink="http://www.w3.org/1999/xlink" xml:space="preserve" xmlns:serif="http://www.serif.com/" style="fill-rule:evenodd;clip-rule:evenodd;stroke-linejoin:round;stroke-miterlimit:2;">
    <g transform="matrix(1,0,0,1,-147.825,-78.3098)">
        <g transform="matrix(0.490711,0,0,0.490711,75.2858,39.8823)">
            <path d="M1026.4,567.7L991.525,580.731C983.486,563.692 969.869,538.825 951.869,520.942C948.682,517.868 943.877,517.196 939.971,519.278C936.061,521.36 933.94,525.723 934.713,530.083C939.034,553.255 940.452,576.872 938.932,600.395L878.744,622.872C873.06,624.993 866.775,624.805 861.224,622.352C855.677,619.899 851.31,615.372 849.056,609.743C846.802,604.111 846.841,597.817 849.165,592.216C879.634,518.575 925.524,434.976 965.485,367.376C977.7,378.216 987.532,391.474 994.36,406.306C996.306,410.377 1000.61,412.771 1005.09,412.283C1009.58,411.791 1013.26,408.521 1014.28,404.127C1019.67,381.322 1022.56,345.018 1009.81,294.577C1016.67,283.608 1022.84,273.882 1028.09,265.725C1040.12,246.959 1045.21,224.569 1042.45,202.444L1030.19,103.116C1029.07,93.624 1023.2,85.354 1014.61,81.159C1006.01,76.967 995.882,77.424 987.703,82.374L675.143,269.524C657.491,280.11 637.295,285.696 616.713,285.696L476.603,285.696C460.294,285.696 444.353,290.524 430.783,299.571L310.833,379.68C290.325,393.352 266.794,401.821 242.278,404.36L184.27,410.36C174.27,411.403 165.008,416.113 158.278,423.587C151.548,431.059 147.821,440.759 147.825,450.814L147.825,1121.69L751.715,1121.69C763.777,1121.68 775.465,1117.5 784.805,1109.87C794.141,1102.23 800.559,1091.61 802.973,1079.79C807.637,1058.09 810.676,1036.06 812.067,1013.9C812.301,1009.49 815.102,1005.63 819.223,1004.05C823.34,1002.46 828.012,1003.44 831.145,1006.55L849.895,1025.3C853.091,1028.5 857.899,1029.45 862.075,1027.72C866.255,1025.98 868.966,1021.9 868.95,1017.37C868.95,998.365 869.536,980.295 870.38,963.467C874.599,880.393 907.423,801.337 963.286,739.707C983.466,717.441 1002.29,698.809 1016.04,685.801C1030.71,671.856 1040.51,653.567 1043.98,633.629L1051.81,588.957C1052.6,584.527 1051.79,579.961 1049.54,576.062C1047.28,572.168 1043.73,569.191 1039.5,567.66C1035.26,566.132 1030.63,566.144 1026.4,567.699L1026.4,567.7ZM579.8,471.091C568.597,491.341 546.542,526.825 515.323,557.2C506.073,566.177 494.069,571.782 481.245,573.114C462.097,575.13 431.886,577.216 406.245,574.145C402.253,573.594 398.823,571.028 397.167,567.352C395.511,563.676 395.858,559.411 398.089,556.051L436.433,500.363C442.597,491.41 451.855,485.047 462.425,482.504C484.105,477.301 524.839,467.738 570.235,458.34C573.594,457.571 577.094,458.848 579.161,461.606C581.231,464.364 581.477,468.082 579.797,471.09L579.8,471.091Z" style="fill:white;fill-rule:nonzero;"/>
        </g>
    </g>
</svg>
